X:138
T:Nancy
S:Jim Coon to CoMandoList TOW
R:reel
M:C|
Q:1/4=200
L:1/4
K:D
d/c/|"D"dDFA|df/e/dA|
"G"Be/f/ g/f/e/d/|"A7"c/d/e/c/ Ad/c/|!
"D"dDFA|df/e/dA|"G"Bg "A7"f/e/d/c/|1
"D"d2d:|2d2d f/g/||!
|:"D"a a/b/a/g/ f|"G"g g/b/g/f/e|
"D"fd "G"g/f/e/d/|"A7"c/d/e/c/ A/c/e/c/|!
"D"dAFA| d f/e/d A|"G"Bg "A7"f/e/d/c/|1
"D"d2d (3e/f/g/:|2"D"dAD||
